X:65
T:Sailor's Hornpipe
C:As played by Ancient Mariners
M:2/4
Q:1/4=100
L:1/16
K:G
%%MIDI channel 1
%%MIDI program 72
%%MIDI transpose 8
%%MIDI grace 1/8
%%MIDI ratio 3 1
gf|g2G2 G2dc|Bdg2 gbag|a2A2 ABAG|FAd2 d2ef|gfed edcB|
cBAG AGFE|DGFA GBAc|B2G2 G2::d2|Bdgd Bdgd|e2c2 c2ed|
^ceae ceae|f2d2 d2 ef|gfed edcB|cBAG AGFE|DGFA GBAc|B2G2 G2:|

